public/library/carbon-perpetuals-text-dark.svg

<svg width="3441" height="747" viewBox="0 0 3441 747" fill="none" xmlns="http://www.w3.org/2000/svg">
<path fill-rule="evenodd" clip-rule="evenodd" d="M725.468 0.892648C726.225 0.894821 727.956 0.928996 729.755 1.64844C734.3 3.46664 767.529 19.4531 783.149 27.0059L806.867 38.4735L780.881 42.8045C778.888 43.1367 775.729 43.7136 772.806 44.3495C771.34 44.6683 770.011 44.9852 768.952 45.277C768.384 45.4335 768.005 45.553 767.779 45.6281C767.526 45.8198 767.186 46.0839 766.753 46.4284C765.667 47.2936 764.181 48.5166 762.364 50.0391C758.74 53.0752 753.949 57.1745 748.708 61.6996C744.222 65.5726 739.425 69.7415 734.776 73.7968H822.665L790.579 95.88L721.901 118.251L704.14 160.783V234.976L628.044 432.933L484.852 565.562V491.162L477.445 499.397L468.012 567.69L541.283 706.381L569.544 718.418L584.722 738.819H526.195L529.965 746.84H387.567L399.988 712.859L417.707 701.705L337.787 596.311V576.796L280.702 632.646L302.591 548.873L258.663 591.24L170.312 610.129V601.394L0.797768 742.212L21.6206 575.629L77.8206 527.597L88.8049 474.841L207.991 349.27L300.884 270.628L363.531 230.696L369.03 230.588L451.805 137.628L471.047 137.729L545.226 44.3171L612.875 5.18165L661.5 17.471C671.455 14.3536 685.497 10.1194 697.877 6.73631C704.537 4.9163 710.836 3.30943 715.8 2.25829C718.264 1.73665 720.563 1.31616 722.486 1.08866C723.44 0.975849 724.469 0.889777 725.468 0.892648ZM404.29 580.731L409.778 574.63L486.33 691.453L510.928 707.951L512.527 711.443L480.473 699.035L404.29 580.731ZM492.444 137.715L552.34 137.593L527.768 154.775L475.09 154.498L459.179 154.53L391.858 230.136L439.534 229.191L421.883 246.843L372.97 247.26L368.566 247.348L310.841 284.142L219.51 361.462L104.23 482.917L98.6584 509.677L155.657 460.625V483.104L90.8977 538.451L72.2126 554.531L72.2406 554.397L37.434 584.145L22.6682 702.272L170.312 579.621V542.289L205.377 515.095V454.943L398.497 292.022V314.305L222.124 462.731V502.067L403.207 361.106V382.862L218.894 525.805L218.882 525.815L187.059 550.495V589.422L250.482 575.863L310.718 517.767L310.724 517.746L312.441 516.105L366.049 464.402V488.06L325.727 526.575L312.181 578.418L580.157 316.236L617.433 247.978L586.082 200.817H545.337L414.721 304.335V282.59L537.22 185.88L537.233 185.87L539.514 184.069H595.059L636.979 247.129L593.657 326.458L354.535 560.41V590.679L442.091 706.144L413.753 723.983L411.52 730.092H503.589L501.205 725.019L469.343 712.686L383.283 579.043L484.852 466.118V466.105L487.014 463.714L565.973 375.926V401.348L501.599 472.554V527.222L613.808 423.291L687.393 231.868V157.426L709.408 104.707L752.886 90.5443H690.331L706.981 75.8856C715.017 68.8097 727.233 58.114 737.763 49.023C743.024 44.4809 747.889 40.3177 751.609 37.2011C753.464 35.6471 755.073 34.3212 756.32 33.328C756.4 33.2645 756.479 33.2017 756.557 33.1396C756.651 33.0649 756.745 32.9914 756.837 32.9192C743.407 26.4712 729.267 19.7307 724.688 17.694C724.616 17.7016 724.537 17.7104 724.453 17.7203C723.265 17.8608 721.533 18.1632 719.27 18.6425C714.78 19.5932 708.846 21.1004 702.292 22.8915C689.217 26.4644 674.151 31.0356 664.27 34.156L662.002 34.8721L615.37 23.0864L556.364 57.2216L492.444 137.715ZM725.42 17.6401C725.518 17.6404 725.495 17.6472 725.378 17.6408C725.397 17.6403 725.411 17.6401 725.42 17.6401ZM768.189 45.3293C768.189 45.3296 768.183 45.3338 768.172 45.3413L768.176 45.3379C768.185 45.3317 768.189 45.3289 768.189 45.3293ZM513.39 689.437L450.684 570.743L457.071 524.499L422.211 563.049L498.477 679.435L513.39 689.437ZM602.08 59.6348L620.902 69.1003L644.616 61.2546L649.377 51.7864L630.861 42.6629L606.462 50.921L602.08 59.6348Z" fill="white"/>
<path fill-rule="evenodd" clip-rule="evenodd" d="M953.874 499.537C974.983 517.518 1005.86 519.472 1050.42 519.472H1139.55C1187.63 519.472 1219.68 517.518 1238.44 501.491C1255.64 487.029 1261.11 465.529 1261.11 432.695C1261.11 430.635 1261.02 428.485 1260.93 426.245C1260.83 423.81 1260.72 421.269 1260.72 418.623H1228.28V426.44C1228.28 473.738 1210.3 486.638 1158.7 486.638H1035.96C1005.47 486.638 986.318 481.947 974.983 465.92C965.21 452.239 964.819 434.649 964.819 410.805V335.363C964.819 311.519 965.21 293.928 974.983 280.247C986.318 264.221 1005.47 259.53 1035.96 259.53H1159.09C1207.56 259.53 1225.54 274.384 1225.54 319.336V323.636H1257.6C1257.99 318.164 1257.99 313.083 1257.99 308.393V308.391C1257.99 243.113 1225.54 228.259 1139.55 228.259H1050.03C1004.69 228.259 974.201 230.995 953.874 248.194C933.548 265.393 926.903 293.928 926.903 337.708V415.105C926.903 455.366 933.548 482.338 953.874 499.537ZM2740.33 259.53H2868.93C2901.37 259.53 2922.09 263.83 2934.6 280.247C2944.37 293.147 2945.15 309.564 2945.15 331.454V414.714C2945.15 436.604 2944.37 453.021 2934.6 465.92C2922.09 482.338 2901.37 486.638 2868.93 486.638H2740.33C2707.88 486.638 2687.16 482.338 2674.66 465.92C2664.1 451.848 2663.71 434.258 2663.71 410.414V335.754C2663.71 311.909 2664.1 294.319 2674.66 280.247C2687.16 263.83 2707.88 259.53 2740.33 259.53ZM2654.72 499.537C2677 517.127 2709.84 519.473 2757.53 519.473H2852.12C2900.2 519.473 2933.03 517.127 2954.92 499.537C2975.64 483.12 2983.46 455.366 2983.46 413.541V334.19C2983.46 291.974 2975.25 264.221 2954.92 248.194C2933.43 230.995 2900.2 228.259 2852.12 228.259H2757.13C2709.05 228.259 2675.83 230.995 2654.33 248.194C2632.83 265.393 2625.79 293.929 2625.79 337.708V415.105C2625.79 455.757 2633.22 482.338 2654.72 499.537ZM3093.51 515.957H3128.69V260.315L3389.41 515.957H3441.01V231.78H3405.83V483.513L3149.01 231.78H3093.51V515.957ZM2428.85 384.227H2242.78V483.513H2428.85C2482.79 483.513 2495.69 475.695 2495.69 436.997C2495.69 392.827 2485.14 384.227 2428.85 384.227ZM2473.41 364.292C2513.67 367.028 2529.7 383.054 2529.7 419.798V449.897C2529.7 507.358 2492.95 515.957 2403.83 515.957H2207.6V231.78H2410.48C2450.35 231.78 2478.49 233.343 2496.08 244.288C2516.02 256.797 2520.32 274.387 2520.32 303.703C2520.32 340.056 2511.72 356.083 2473.41 364.292ZM2242.78 262.66V351.001H2404.61C2467.16 351.001 2485.92 350.219 2485.92 307.612C2485.92 288.068 2483.18 276.341 2473.8 270.478C2461.68 263.051 2440.58 262.66 2410.09 262.66H2242.78ZM1783.93 515.957H1819.11V404.553H1991.49C2040.35 404.553 2060.29 408.071 2060.29 452.633V515.957H2095.47V445.597C2095.47 412.371 2079.44 393.608 2048.56 390.09C2087.65 381.882 2098.6 367.028 2098.6 333.411V299.404C2098.6 241.552 2066.93 231.78 1986.8 231.78H1783.93V515.957ZM1819.11 262.66H1998.14C2048.56 262.66 2061.46 271.65 2061.46 310.349V324.03C2061.46 362.728 2048.56 371.718 1998.14 371.718H1819.11V262.66ZM1325.46 515.957L1490.42 231.78H1537.32L1702.67 515.957H1665.14L1628.01 453.415H1402.07L1365.72 515.957H1325.46ZM1419.27 423.316H1610.81L1514.26 259.924L1419.27 423.316Z" fill="white"/>
</svg>

<svg xmlns="http://www.w3.org/2000/svg" width="3441" height="747" fill="none" viewBox="0 0 3441 747"><path fill="#fff" fill-rule="evenodd" d="M725.468.893c.757.002 2.488.036 4.287.755 4.545 1.819 37.774 17.805 53.394 25.358l23.718 11.468-25.986 4.33c-1.993.333-5.152.91-8.075 1.545a76 76 0 0 0-3.854.928c-.568.157-.947.276-1.173.351q-.378.286-1.026.8a245 245 0 0 0-4.389 3.611c-3.624 3.036-8.415 7.136-13.656 11.66a3686 3686 0 0 0-13.932 12.098h87.889L790.579 95.88l-68.678 22.371-17.761 42.532v74.193l-76.096 197.957-143.192 132.629v-74.4l-7.407 8.235-9.433 68.293 73.271 138.691 28.261 12.037 15.178 20.401h-58.527l3.77 8.021H387.567l12.421-33.981 17.719-11.154-79.92-105.394v-19.515l-57.085 55.85 21.889-83.773-43.928 42.367-88.351 18.889v-8.735L.798 742.212 21.62 575.629l56.2-48.032 10.984-52.756L207.99 349.27l92.893-78.642 62.647-39.932 5.499-.108 82.775-92.96 19.242.101 74.179-93.412 67.649-39.135L661.5 17.47c9.955-3.117 23.997-7.352 36.377-10.735 6.66-1.82 12.959-3.427 17.923-4.478 2.464-.521 4.763-.942 6.686-1.17a25 25 0 0 1 2.982-.195M404.29 580.73l5.488-6.101 76.552 116.823 24.598 16.498 1.599 3.492-32.054-12.408zm88.154-443.016 59.896-.122-24.572 17.182-52.678-.277-15.911.032-67.321 75.606 47.676-.945-17.651 17.652-48.913.417-4.404.088-57.725 36.794-91.331 77.32-115.28 121.455-5.572 26.76 56.999-49.052v22.479l-64.76 55.347-18.684 16.08.028-.134-34.807 29.748-14.766 118.127 147.644-122.651v-37.332l35.065-27.194v-60.152l193.12-162.921v22.283L222.124 462.731v39.336l181.083-140.961v21.756L218.894 525.805l-.012.01-31.823 24.68v38.927l63.423-13.559 60.236-58.096.006-.021 1.717-1.641 53.608-51.703v23.658l-40.322 38.515-13.546 51.843 267.976-262.182 37.276-68.258-31.351-47.161h-40.745L414.721 304.335V282.59l122.499-96.71.013-.01 2.281-1.801h55.545l41.92 63.06-43.322 79.329L354.535 560.41v30.269l87.556 115.465-28.338 17.839-2.233 6.109h92.069l-2.384-5.073-31.862-12.333-86.06-133.643 101.569-112.925v-.013l2.162-2.391 78.959-87.788v25.422l-64.374 71.206v54.668l112.209-103.931 73.585-191.423v-74.442l22.015-52.719 43.478-14.163h-62.555l16.65-14.658a4561 4561 0 0 1 30.782-26.863c5.261-4.542 10.126-8.705 13.846-11.822a261 261 0 0 1 4.948-4.061q.142-.113.28-.22c-13.43-6.449-27.57-13.19-32.149-15.226l-.235.026c-1.188.14-2.92.443-5.183.922-4.49.951-10.424 2.458-16.978 4.25-13.075 3.572-28.141 8.144-38.022 11.264l-2.268.716-46.632-11.786-59.006 34.136zM725.42 17.64c.098 0 .075.007-.042 0zm42.769 27.69-.017.011.004-.003zM513.39 689.436l-62.706-118.694 6.387-46.244-34.86 38.55 76.266 116.386zm88.69-629.802 18.822 9.465 23.714-7.845 4.761-9.469-18.516-9.123-24.399 8.258zM953.874 499.537c21.109 17.981 51.986 19.935 96.546 19.935h89.13c48.08 0 80.13-1.954 98.89-17.981 17.2-14.462 22.67-35.962 22.67-68.796 0-2.06-.09-4.21-.18-6.45-.1-2.435-.21-4.976-.21-7.622h-32.44v7.817c0 47.298-17.98 60.198-69.58 60.198h-122.74c-30.49 0-49.642-4.691-60.977-20.718-9.773-13.681-10.164-31.271-10.164-55.115v-75.442c0-23.844.391-41.435 10.164-55.116 11.335-16.026 30.487-20.717 60.977-20.717h123.13c48.47 0 66.45 14.854 66.45 59.806v4.3h32.06c.39-5.472.39-10.553.39-15.243v-.002c0-65.278-32.45-80.132-118.44-80.132h-89.52c-45.34 0-75.829 2.736-96.156 19.935-20.326 17.199-26.971 45.734-26.971 89.514v77.397c0 40.261 6.645 67.233 26.971 84.432M2740.33 259.53h128.6c32.44 0 53.16 4.3 65.67 20.717 9.77 12.9 10.55 29.317 10.55 51.207v83.26c0 21.89-.78 38.307-10.55 51.206-12.51 16.418-33.23 20.718-65.67 20.718h-128.6c-32.45 0-53.17-4.3-65.67-20.718-10.56-14.072-10.95-31.662-10.95-55.506v-74.66c0-23.845.39-41.435 10.95-55.507 12.5-16.417 33.22-20.717 65.67-20.717m-85.61 240.007c22.28 17.59 55.12 19.936 102.81 19.936h94.59c48.08 0 80.91-2.346 102.8-19.936 20.72-16.417 28.54-44.171 28.54-85.996V334.19c0-42.216-8.21-69.969-28.54-85.996-21.49-17.199-54.72-19.935-102.8-19.935h-94.99c-48.08 0-81.3 2.736-102.8 19.935s-28.54 45.735-28.54 89.514v77.397c0 40.652 7.43 67.233 28.93 84.432m438.79 16.42h35.18V260.315l260.72 255.642h51.6V231.78h-35.18v251.733L3149.01 231.78h-55.5zm-664.66-131.73h-186.07v99.286h186.07c53.94 0 66.84-7.818 66.84-46.516 0-44.17-10.55-52.77-66.84-52.77m44.56-19.935c40.26 2.736 56.29 18.762 56.29 55.506v30.099c0 57.461-36.75 66.06-125.87 66.06H2207.6V231.78h202.88c39.87 0 68.01 1.563 85.6 12.508 19.94 12.509 24.24 30.099 24.24 59.415 0 36.353-8.6 52.38-46.91 60.589M2242.78 262.66v88.341h161.83c62.55 0 81.31-.782 81.31-43.389 0-19.544-2.74-31.271-12.12-37.134-12.12-7.427-33.22-7.818-63.71-7.818zm-458.85 253.297h35.18V404.553h172.38c48.86 0 68.8 3.518 68.8 48.08v63.324h35.18v-70.36c0-33.226-16.03-51.989-46.91-55.507 39.09-8.208 50.04-23.062 50.04-56.679v-34.007c0-57.852-31.67-67.624-111.8-67.624h-202.87zm35.18-253.297h179.03c50.42 0 63.32 8.99 63.32 47.689v13.681c0 38.698-12.9 47.688-63.32 47.688h-179.03zm-493.65 253.297 164.96-284.177h46.9l165.35 284.177h-37.53l-37.13-62.542h-225.94l-36.35 62.542zm93.81-92.641h191.54l-96.55-163.392z" clip-rule="evenodd"/></svg>
